web/Website/img/svg-sprite/video.svg

<?xml version="1.0" encoding="utf-8"?>
<!-- Generator: Adobe Illustrator 19.2.0, SVG Export Plug-In . SVG Version: 6.00 Build 0)  -->
<!DOCTYPE svg PUBLIC "-//W3C//DTD SVG 1.1//EN" "http://www.w3.org/Graphics/SVG/1.1/DTD/svg11.dtd">
<svg version="1.1" id="layers" xmlns="http://www.w3.org/2000/svg" xmlns:xlink="http://www.w3.org/1999/xlink" x="0px" y="0px"
	 width="60px" height="60px" viewBox="0 0 60 60" style="enable-background:new 0 0 60 60;" xml:space="preserve">
<style type="text/css">
	.st0{fill-rule:evenodd;clip-rule:evenodd;fill:#231F20;}
	.st1{fill:#231F20;}
	.st2{fill-rule:evenodd;clip-rule:evenodd;}
	.st3{fill:#202020;}
</style>
<g>
	<g>
		<path d="M36.204,36.239H11.387c-0.806,0-1.459,0.681-1.459,1.521s0.653,1.522,1.459,1.522h24.818c0.806,0,1.459-0.681,1.459-1.522
			S37.01,36.239,36.204,36.239z M11.387,26.347c6.278,0,11.386-5.324,11.386-11.87c0-6.544-5.108-11.869-11.386-11.869
			C5.108,2.608,0,7.933,0,14.477C0,21.022,5.108,26.347,11.387,26.347z M11.387,5.65c4.669,0,8.468,3.959,8.468,8.827
			c0,4.867-3.799,8.828-8.468,8.828c-4.669,0-8.468-3.961-8.468-8.828C2.918,9.609,6.718,5.65,11.387,5.65z M32.482,26.347
			c4.226,0,7.663-3.584,7.663-7.989c0-4.405-3.438-7.988-7.663-7.988c-4.225,0-7.664,3.583-7.664,7.988
			C24.818,22.763,28.257,26.347,32.482,26.347z M32.482,13.411c2.616,0,4.746,2.219,4.746,4.946c0,2.727-2.129,4.948-4.746,4.948
			s-4.745-2.22-4.745-4.948C27.737,15.63,29.865,13.411,32.482,13.411z M58.678,32.374c-0.84-0.583-1.929-0.653-2.989-0.197
			l-10.58,4.596v-4.186c0-2.265-1.767-4.107-3.94-4.107H6.423c-2.174,0-3.941,1.842-3.941,4.107v20.697
			c0,2.265,1.768,4.108,3.941,4.108h34.745c2.173,0,3.94-1.844,3.94-4.108v-4.186l10.579,4.594c0.463,0.201,0.93,0.302,1.381,0.302
			c0.582,0,1.134-0.167,1.608-0.495C59.517,52.913,60,51.892,60,50.696V35.174C60,33.979,59.518,32.958,58.678,32.374z
			 M42.191,39.036c0,0.007,0,0.015,0,0.022v7.754c0,0.007,0,0.015,0,0.022v6.449c0,0.577-0.468,1.066-1.023,1.066H6.423
			c-0.555,0-1.023-0.489-1.023-1.066V32.587c0-0.577,0.468-1.066,1.023-1.066h34.745c0.555,0,1.023,0.489,1.023,1.066V39.036z
			 M56.811,50.883L45.109,45.8v-5.71l11.973-4.916L56.811,50.883z"/>
	</g>
</g>
</svg>

<svg xmlns="http://www.w3.org/2000/svg" width="60" height="60" viewBox="0 0 60 60"><path d="M36.2 36.24H11.4c-.82 0-1.47.68-1.47 1.52s.65 1.52 1.46 1.52h24.8c.8 0 1.42-.68 1.42-1.52s-.65-1.52-1.46-1.52zm-24.8-9.9c6.26 0 11.37-5.32 11.37-11.86 0-6.55-5.1-11.87-11.38-11.87C5.1 2.6 0 7.98 0 14.5s5.1 11.87 11.4 11.87zm0-20.7c4.66 0 8.46 3.97 8.46 8.84 0 4.86-3.8 8.82-8.47 8.82-4.7 0-8.5-3.96-8.5-8.82 0-4.87 3.8-8.83 8.45-8.83zm21.08 20.7c4.23 0 7.67-3.58 7.67-7.98s-3.44-8-7.67-8c-4.22 0-7.66 3.6-7.66 8s3.44 8 7.66 8zm0-12.93c2.62 0 4.75 2.27 4.75 5 0 2.7-2.13 4.95-4.75 4.95s-4.74-2.22-4.74-4.94c0-2.73 2.13-4.95 4.74-4.95zm26.2 19c-.84-.6-1.93-.64-3-.2L45.1 36.8v-4.2c0-2.28-1.74-4.12-3.9-4.12H6.4c-2.17 0-3.94 1.84-3.94 4.1v20.7c0 2.27 1.77 4.1 3.94 4.1h34.75c2.17 0 3.94-1.83 3.94-4.1V49.1l10.6 4.6c.45.2.92.3 1.4.3.55 0 1.1-.17 1.6-.5.82-.6 1.3-1.6 1.3-2.8V35.17c0-1.2-.47-2.2-1.3-2.8zm-16.5 6.68V53.3c0 .58-.46 1.07-1 1.07H6.4c-.55 0-1.02-.5-1.02-1.07V32.6c0-.57.47-1.06 1.02-1.06h34.75c.55 0 1.02.5 1.02 1.07v6.48zM56.8 50.9l-11.7-5.1v-5.7l11.98-4.93-.27 15.7z"/></svg>
